brandFactory_export/1.Light/Video _1Light.svg

<?xml version="1.0" encoding="UTF-8"?>
<svg width="24px" height="24px" viewBox="0 0 24 24" version="1.1" xmlns="http://www.w3.org/2000/svg" xmlns:xlink="http://www.w3.org/1999/xlink">
    <title>1.Light/Video _1Light</title>
    <g id="Symbols" stroke="none" stroke-width="1" fill="none" fill-rule="evenodd">
        <g id="1.Light/Video-_1Light" fill="#5CB615" fill-rule="nonzero">
            <path d="M19.8151261,21.6521008 C21.1226891,21.6084034 22.5915966,20.9731092 22.6588235,18.3714286 L19.805042,18.3714286 L19.8151261,21.6521008 Z M1.01848739,18.3714286 C1.01848739,18.687395 1.06890756,19.907563 1.84201681,20.7411765 C2.34285714,21.2789916 3.09579832,21.5680672 4.06386555,21.6218487 L4.05378151,18.3747899 L1.01848739,18.3747899 L1.01848739,18.3714286 Z M2.27226891,2.51596639 C1.45882353,3.04033613 1.04537815,3.99495798 1.02857143,5.3394958 L4.01344538,5.3394958 L4,2.01848739 C3.62689076,2.02857143 2.90756303,2.10588235 2.27226891,2.51596639 Z M22.6722689,5.34285714 C22.6789916,5.19495798 22.712605,3.84369748 21.8756303,2.93277311 C21.394958,2.41176471 20.6756303,2.12268908 19.7546218,2.04537815 L19.7647059,5.34285714 L22.6722689,5.34285714 L22.6722689,5.34285714 Z M19.7915966,14.3647059 L19.7983193,17.3697479 L22.6689076,17.3697479 L22.6689076,14.3613445 C22.6689076,14.3647059 19.7915966,14.3647059 19.7915966,14.3647059 L19.7915966,14.3647059 Z M22.6655462,6.34453782 L19.7647059,6.34453782 L19.7747899,9.35294118 L22.6689076,9.35294118 L22.6655462,6.34453782 Z M19.7781513,10.3546218 L19.7882353,13.3630252 L22.6689076,13.3630252 L22.6689076,10.3546218 L19.7781513,10.3546218 Z M4.98487395,2.01848739 L5.04537815,21.6420168 L18.8268908,21.6420168 L18.7663866,2.01176471 C14.6151261,2.01176471 7.16638655,2.01848739 4.98487395,2.01848739 Z M1.02184874,17.3697479 L4.04705882,17.3697479 L4.03697479,14.3613445 L1.02184874,14.3613445 L1.02184874,17.3697479 Z M4.02352941,9.35294118 L4.01344538,6.34453782 L1.01848739,6.34453782 L1.01848739,9.35294118 L4.02352941,9.35294118 Z M1.02184874,10.3546218 L1.02184874,13.3630252 L4.03697479,13.3630252 L4.02689076,10.3546218 L1.02184874,10.3546218 Z M19.2840336,1.01008403 C23.9966387,1.01008403 23.6504202,5.45042017 23.6504202,5.45042017 L23.6537815,18.2 C23.6537815,22.2941176 20.7226891,22.6638655 19.6638655,22.6638655 C19.4285714,22.6638655 19.287395,22.6436975 19.287395,22.6436975 L4.37983193,22.6436975 C-0.258823529,22.6436975 0.0369747899,18.2235294 0.0369747899,18.2235294 L0.0369747899,5.42352941 C0.0369747899,1.29915966 3.22352941,1.01008403 4.12773109,1.01008403 C4.2789916,1.01008403 4.36638655,1.01680672 4.36638655,1.01680672 C4.36638655,1.01680672 14.5714286,1.01008403 19.2840336,1.01008403 L19.2840336,1.01008403 Z M8.89747899,15.3697479 L14.907563,11.8369748 L8.89747899,8.30420168 L8.89747899,15.3697479 Z M16.1378151,11.4033613 C16.3764706,11.5445378 16.4571429,11.8537815 16.312605,12.0957983 C16.2689076,12.1663866 16.2084034,12.2268908 16.1378151,12.2705882 L8.65210084,16.6739496 C8.50084034,16.7647059 8.31260504,16.7647059 8.16134454,16.6739496 C8.01008403,16.5831933 7.91596639,16.4184874 7.91596639,16.2403361 L7.91596639,7.43697479 C7.91596639,7.25882353 8.01008403,7.09411765 8.16134454,7.00336134 C8.31260504,6.91260504 8.50084034,6.91260504 8.65210084,7.00336134 L16.1378151,11.4033613 Z" id="Video-_1Light"></path>
        </g>
    </g>
</svg>

<svg width="24" height="24" viewBox="0 0 24 24" xmlns="http://www.w3.org/2000/svg"><path d="M19.815 21.652c1.308-.044 2.777-.679 2.844-3.28h-2.854l.01 3.28zm-18.797-3.28c0 .315.05 1.536.824 2.37.5.537 1.254.826 2.222.88l-.01-3.247H1.018v-.004zM2.272 2.515C1.46 3.04 1.045 3.995 1.03 5.339h2.984L4 2.02c-.373.01-1.092.087-1.728.497zm20.4 2.827c.007-.148.04-1.5-.796-2.41-.481-.521-1.2-.81-2.121-.888l.01 3.298h2.907zm-2.88 9.022l.006 3.005h2.87V14.36c0 .004-2.876.004-2.876.004zm2.874-8.02h-2.901l.01 3.008h2.894l-.003-3.008zm-2.888 4.01l.01 3.008h2.88v-3.008h-2.89zM4.985 2.018l.06 19.624h13.782l-.06-19.63c-4.152 0-11.6.006-13.782.006zM1.022 17.37h3.025l-.01-3.009H1.022v3.009zm3.002-8.017l-.01-3.008H1.017v3.008h3.006zm-3.002 1.002v3.008h3.015l-.01-3.008H1.022zM19.284 1.01c4.713 0 4.366 4.44 4.366 4.44l.004 12.75c0 4.094-2.931 4.464-3.99 4.464-.235 0-.377-.02-.377-.02H4.38c-4.639 0-4.343-4.42-4.343-4.42v-12.8c0-4.125 3.187-4.414 4.09-4.414.152 0 .24.007.24.007S14.57 1.01 19.283 1.01zM8.897 15.37l6.01-3.533-6.01-3.533v7.066zm7.24-3.967a.503.503 0 010 .868l-7.485 4.403a.476.476 0 01-.49 0 .506.506 0 01-.246-.434V7.437c0-.178.094-.343.245-.434.152-.09.34-.09.491 0l7.486 4.4z" fill="#5CB615" fill-rule="nonzero"/></svg>
